X: 8
T: Johnny, Don't Get Drunk (R-95)
I: Johnny, Don't Get Drunk	R-95	D	reel
M: C|
R: reel
K: D
"D"fefg a2g2| "A7"fdec "D"d4| "G"BABc dBAG| "A7"F2E2 E4|
"D"fefg a2g2| "A7"fdec "D"d4| "G"BABc d2g2| "A7"fdec "D"d4 :|
|:"D"F2A2 A4| FA2F A4| "G"BABc dBAG| "A7"F2E2 E4|
"D"FA2F A4| "G"BABc d4| BABc d2g2| "A7"fdec "D"d4 :|

